svgs/neo_backup.svg

<svg width="192" height="192" viewBox="0 0 192 192" fill="none" xmlns="http://www.w3.org/2000/svg">
    <path d="M41 111C41 108.791 42.7909 107 45 107H73C75.2092 107 77 108.791 77 111C77 113.209 75.2092 115 73 115H45C42.7909 115 41 113.209 41 111Z" fill="#000000"/>
    <path d="M34 96C34 93.7909 35.7909 92 38 92H80C82.2092 92 84 93.7909 84 96C84 98.2091 82.2092 100 80 100H38C35.7909 100 34 98.2091 34 96Z" fill="#000000"/>
    <path d="M41 81C41 78.7909 42.7909 77 45 77H73C75.2092 77 77 78.7909 77 81C77 83.2091 75.2092 85 73 85H45C42.7909 85 41 83.2091 41 81Z" fill="#000000"/>
    <path fill-rule="evenodd" clip-rule="evenodd" d="M65.0478 65.5957C58.0136 64.1965 50.7119 65.2796 44.3867 68.6605C38.0616 72.0414 33.1044 77.5108 30.3597 84.1369C27.6151 90.7629 27.2529 98.1357 29.3349 104.999C31.4168 111.862 35.814 117.791 41.7773 121.776C47.7406 125.76 54.9011 127.554 62.0385 126.851C69.176 126.148 75.8489 122.992 80.9203 117.92C83.2635 115.577 87.0625 115.577 89.4056 117.92C91.7487 120.264 91.7487 124.063 89.4056 126.406C82.3711 133.44 73.1151 137.818 63.2147 138.793C53.3144 139.768 43.3822 137.28 35.1105 131.753C26.8388 126.226 20.7394 118.002 17.8516 108.482C14.9637 98.9624 15.4662 88.7357 19.2732 79.5447C23.0802 70.3537 29.9564 62.767 38.73 58.0774C47.5036 53.3879 57.6318 51.8855 67.3889 53.8263C77.146 55.7671 85.9283 61.031 92.2395 68.7211C98.5506 76.4113 102 86.0518 102 96.0001C102 103.172 104.487 110.122 109.037 115.666C113.587 121.21 119.918 125.005 126.952 126.404C133.986 127.804 141.288 126.72 147.613 123.34C153.938 119.959 158.896 114.489 161.64 107.863C164.385 101.237 164.747 93.8644 162.665 87.0012C160.583 80.1381 156.186 74.2091 150.223 70.2245C144.259 66.2399 137.099 64.4464 129.961 65.1493C122.824 65.8523 116.151 69.0084 111.08 74.0797C108.737 76.4229 104.938 76.4229 102.594 74.0797C100.251 71.7366 100.251 67.9376 102.594 65.5945C109.629 58.56 118.885 54.1822 128.785 53.2071C138.686 52.232 148.618 54.7199 156.89 60.2469C165.161 65.7738 171.261 73.9979 174.148 83.5178C177.036 93.0377 176.534 103.264 172.727 112.455C168.92 121.646 162.044 129.233 153.27 133.923C144.496 138.612 134.368 140.115 124.611 138.174C114.854 136.233 106.072 130.969 99.7606 123.279C93.4494 115.589 90 105.948 90 96.0001C90 88.828 87.5132 81.8779 82.9633 76.3339C78.4135 70.7898 72.082 66.9949 65.0478 65.5957Z" fill="#000000"/>
    <path fill-rule="evenodd" clip-rule="evenodd" d="M113.422 95.2112C114.41 93.2353 116.813 92.4344 118.789 93.4223L133 100.528L147.211 93.4223C149.187 92.4344 151.59 93.2353 152.578 95.2112C153.566 97.1871 152.765 99.5897 150.789 100.578L134.789 108.578C133.663 109.141 132.337 109.141 131.211 108.578L115.211 100.578C113.235 99.5897 112.434 97.1871 113.422 95.2112Z" fill="#000000"/>
    <path fill-rule="evenodd" clip-rule="evenodd" d="M113.422 107.211C114.41 105.235 116.813 104.434 118.789 105.422L133 112.528L147.211 105.422C149.187 104.434 151.59 105.235 152.578 107.211C153.566 109.187 152.765 111.59 150.789 112.578L134.789 120.578C133.663 121.141 132.337 121.141 131.211 120.578L115.211 112.578C113.235 111.59 112.434 109.187 113.422 107.211Z" fill="#000000"/>
    <path fill-rule="evenodd" clip-rule="evenodd" d="M130.908 71.5907C132.191 70.803 133.809 70.803 135.092 71.5907L151.092 81.4089C152.325 82.1654 153.053 83.5284 152.997 84.9736C152.941 86.4188 152.109 87.7212 150.821 88.3797L134.821 96.5614C133.678 97.1463 132.323 97.1463 131.179 96.5614L115.179 88.3797C113.891 87.7212 113.059 86.4188 113.003 84.9736C112.947 83.5284 113.675 82.1654 114.908 81.4089L130.908 71.5907ZM125.165 84.5009L133 88.5073L140.835 84.5009L133 79.6931L125.165 84.5009Z" fill="#000000"/>
</svg>

<svg width="192" height="192" fill="none" xmlns="http://www.w3.org/2000/svg"><path d="M41 111a4 4 0 0 1 4-4h28a4 4 0 0 1 0 8H45a4 4 0 0 1-4-4ZM34 96a4 4 0 0 1 4-4h42a4 4 0 1 1 0 8H38a4 4 0 0 1-4-4ZM41 81a4 4 0 0 1 4-4h28a4 4 0 1 1 0 8H45a4 4 0 0 1-4-4Z" fill="#000"/><path fill-rule="evenodd" clip-rule="evenodd" d="M65.048 65.596A31 31 0 1 0 80.92 117.92a6 6 0 0 1 8.486 8.486 43.002 43.002 0 0 1-71.554-17.924A42.999 42.999 0 1 1 102 96a30.999 30.999 0 1 0 9.08-21.92 6 6 0 0 1-8.486-8.486 43.003 43.003 0 0 1 54.296-5.347 42.997 42.997 0 0 1 15.837 52.208 43.002 43.002 0 0 1-48.116 25.719A43.003 43.003 0 0 1 90 96a31 31 0 0 0-24.952-30.404Z" fill="#000"/><path fill-rule="evenodd" clip-rule="evenodd" d="M113.422 95.211a4 4 0 0 1 5.367-1.789L133 100.528l14.211-7.106a4 4 0 0 1 3.578 7.156l-16 8a4.001 4.001 0 0 1-3.578 0l-16-8a4 4 0 0 1-1.789-5.367Z" fill="#000"/><path fill-rule="evenodd" clip-rule="evenodd" d="M113.422 107.211a4 4 0 0 1 5.367-1.789L133 112.528l14.211-7.106a4 4 0 0 1 3.578 7.156l-16 8a4.001 4.001 0 0 1-3.578 0l-16-8a4 4 0 0 1-1.789-5.367ZM130.908 71.59a4 4 0 0 1 4.184 0l16 9.819a4 4 0 0 1-.271 6.97l-16 8.182a3.999 3.999 0 0 1-3.642 0l-16-8.181a4 4 0 0 1-.271-6.971l16-9.818Zm-5.743 12.91L133 88.508l7.835-4.006L133 79.693l-7.835 4.808Z" fill="#000"/></svg>
